32x32/apps/background.svg

<svg xmlns="http://www.w3.org/2000/svg" width="32" height="32" version="1">
 <path style="fill:#325f78" transform="matrix(0,-1,-1,0,0,0)" d="m-16-30h9.5c0.831 0 1.5 0.669 1.5 1.5v25c0 0.831-0.669 1.5-1.5 1.5h-19c-0.831 0-1.5-0.669-1.5-1.5v-15.5z"/>
 <path style="opacity:0.2" transform="matrix(0,-1,-1,0,0,0)" d="m-17.161-28h10.161v24h-18v-16z"/>
 <path fill="#fff" opacity=".1" d="m3.5 5c-0.831 0-1.5 0.669-1.5 1.5v1c0-0.831 0.669-1.5 1.5-1.5h25c0.831 0 1.5 0.669 1.5 1.5v-1c0-0.831-0.669-1.5-1.5-1.5h-25z"/>
 <path style="fill:#56839e" d="m30 16h-9.625c-0.759 0-1.375 0.616-1.375 1.375v9.625z"/>
 <path fill="#fff" style="opacity:0.1" d="m20.375 16c-0.759 0-1.375 0.616-1.375 1.375v1c0-0.759 0.616-1.375 1.375-1.375h8.625l1-1h-9.625z"/>
 <path opacity=".2" d="m30 16-11 11h-15.5c-0.831 0-1.5-0.669-1.5-1.5v1c0 0.831 0.669 1.5 1.5 1.5h15.5l11-11v-1z"/>
</svg>

<svg xmlns="http://www.w3.org/2000/svg" width="32" height="32" version="1"><path style="fill:#325f78" transform="matrix(0 -1 -1 0 0 0)" d="M-16-30h9.5c.831 0 1.5.669 1.5 1.5v25C-5-2.669-5.669-2-6.5-2h-19c-.831 0-1.5-.669-1.5-1.5V-19z"/><path style="opacity:.2" transform="matrix(0 -1 -1 0 0 0)" d="M-17.161-28H-7v24h-18v-16z"/><path fill="#fff" opacity=".1" d="M3.5 5C2.669 5 2 5.669 2 6.5v1C2 6.669 2.669 6 3.5 6h25c.831 0 1.5.669 1.5 1.5v-1c0-.831-.669-1.5-1.5-1.5h-25z"/><path style="fill:#56839e" d="M30 16h-9.625c-.759 0-1.375.616-1.375 1.375V27z"/><path fill="#fff" style="opacity:.1" d="M20.375 16c-.759 0-1.375.616-1.375 1.375v1c0-.759.616-1.375 1.375-1.375H29l1-1h-9.625z"/><path opacity=".2" d="M30 16 19 27H3.5c-.831 0-1.5-.669-1.5-1.5v1c0 .831.669 1.5 1.5 1.5H19l11-11v-1z"/></svg>
